packages/ui/src/lib/icons/svg/theme-light.svg

<svg width="100%" height="100%" viewBox="0 0 16 16" fill="none" xmlns="http://www.w3.org/2000/svg">
<g clip-path="url(#clip0_9622_62733)">
<circle cx="8" cy="8" r="2.25" stroke="currentColor" stroke-width="1.5"/>
<path d="M8 0.5V3M8 13V15.5M15.505 7.995H13.005M3.005 7.995H0.505005" stroke="currentColor" stroke-width="1.5"/>
<path d="M13.3048 2.69314L11.537 4.4609M4.46594 11.532L2.69817 13.2997M13.3118 13.2997L11.5441 11.532M4.47301 4.4609L2.70524 2.69314" stroke="currentColor" stroke-width="1.5"/>
</g>
<defs>
<clipPath id="clip0_9622_62733">
<rect width="16" height="16" fill="white"/>
</clipPath>
</defs>
</svg>

<svg xmlns="http://www.w3.org/2000/svg" fill="none" viewBox="0 0 16 16" width="100%" height="100%"><g stroke="currentColor" stroke-width="1.5" clip-path="url(#a)"><circle cx="8" cy="8" r="2.25"/><path d="M8 .5V3m0 10v2.5m7.505-7.505h-2.5m-10 0h-2.5m12.8-5.302-1.768 1.768m-7.071 7.071L2.698 13.3m10.614 0-1.768-1.768M4.473 4.461 2.705 2.693"/></g><defs><clipPath id="a"><path fill="currentColor" d="M0 0h16v16H0z"/></clipPath></defs></svg>
